public/assets/mock/objects/boing-pink.svg

<svg width="48" height="46" viewBox="0 0 48 46" fill="none" xmlns="http://www.w3.org/2000/svg">
<path d="M43.5797 8.0499C43.5797 8.0499 35.5597 -3.1501 23.3297 3.1299C20.7797 4.4399 19.1397 6.3099 18.1397 8.4099H21.9197C23.1397 6.3699 25.2597 4.8099 28.8597 4.5599C39.6597 3.7999 42.1697 15.3899 42.1697 15.3899L46.7897 15.0699C45.5697 10.6299 43.5797 8.0599 43.5797 8.0599V8.0499Z" fill="#FF7F81"/>
<path d="M21.9097 8.6599C17.6197 8.2499 13.9797 9.1899 11.1397 10.4799C5.97969 12.8299 2.44969 17.7599 1.65969 23.3799C1.34969 25.5699 1.28969 28.1199 1.75969 30.8799C3.28969 39.8199 12.6697 44.5899 12.6697 44.5899L15.1797 41.6999C9.58969 39.3799 7.40969 34.0999 7.40969 34.0999C7.40969 34.0999 -0.0303144 18.3399 13.2197 13.7899C26.4697 9.2399 29.0897 20.8199 29.0897 20.8199C29.0897 20.8199 30.3697 26.1599 26.7697 26.4099C24.9697 26.5399 23.8897 25.5999 23.0397 24.8599C22.0797 24.0199 21.0397 20.5399 20.8597 19.5799C20.6197 18.2499 20.2397 15.7099 20.4997 13.0899L16.8297 13.1999C16.4197 17.0699 17.2497 20.9299 17.8897 23.1799C18.4497 25.1799 19.4497 27.0399 20.9197 28.5099C22.4997 30.0999 24.8597 31.5099 27.9797 30.8399C34.2197 29.4999 33.6497 21.3899 33.6497 21.3899C33.6497 21.3899 32.8297 9.6899 21.8997 8.6399L21.9097 8.6599Z" fill="#FF7F81"/>
<path d="M43.5797 8.0499C43.5797 8.0499 35.5597 -3.1501 23.3297 3.1299C20.7797 4.4399 19.1397 6.3099 18.1397 8.4099H21.9197C23.1397 6.3699 25.2597 4.8099 28.8597 4.5599C39.6597 3.7999 42.1697 15.3899 42.1697 15.3899L46.7897 15.0699C45.5697 10.6299 43.5797 8.0599 43.5797 8.0599V8.0499Z" stroke="black" stroke-width="1.5" stroke-linecap="round" stroke-linejoin="round"/>
<path d="M21.9097 8.6599C17.6197 8.2499 13.9797 9.1899 11.1397 10.4799C5.97969 12.8299 2.44969 17.7599 1.65969 23.3799C1.34969 25.5699 1.28969 28.1199 1.75969 30.8799C3.28969 39.8199 12.6697 44.5899 12.6697 44.5899L15.1797 41.6999C9.58969 39.3799 7.40969 34.0999 7.40969 34.0999C7.40969 34.0999 -0.0303144 18.3399 13.2197 13.7899C26.4697 9.2399 29.0897 20.8199 29.0897 20.8199C29.0897 20.8199 30.3697 26.1599 26.7697 26.4099C24.9697 26.5399 23.8897 25.5999 23.0397 24.8599C22.0797 24.0199 21.0397 20.5399 20.8597 19.5799C20.6197 18.2499 20.2397 15.7099 20.4997 13.0899L16.8297 13.1999C16.4197 17.0699 17.2497 20.9299 17.8897 23.1799C18.4497 25.1799 19.4497 27.0399 20.9197 28.5099C22.4997 30.0999 24.8597 31.5099 27.9797 30.8399C34.2197 29.4999 33.6497 21.3899 33.6497 21.3899C33.6497 21.3899 32.8297 9.6899 21.8997 8.6399L21.9097 8.6599Z" stroke="black" stroke-width="1.5" stroke-linecap="round" stroke-linejoin="round"/>
</svg>

<?xml version="1.0" encoding="UTF-8"?>
<svg id="_레이어_1" data-name="레이어_1" xmlns="http://www.w3.org/2000/svg" width="48" height="46" version="1.1" viewBox="0 0 48 46">
  <!-- Generator: Adobe Illustrator 29.6.1, SVG Export Plug-In . SVG Version: 2.1.1 Build 9)  -->
  <path d="M43.58,8.05S35.56-3.15,23.33,3.13c-2.55,1.31-4.19,3.18-5.19,5.28h3.78c1.22-2.04,3.34-3.6,6.94-3.85,10.8-.76,13.31,10.83,13.31,10.83l4.62-.32c-1.22-4.44-3.21-7.01-3.21-7.01h0Z" fill="#fcc"/>
  <path d="M21.91,8.66c-4.29-.41-7.93.53-10.77,1.82-5.16,2.35-8.69,7.28-9.48,12.9-.31,2.19-.37,4.74.1,7.5,1.53,8.94,10.91,13.71,10.91,13.71l2.51-2.89c-5.59-2.32-7.77-7.6-7.77-7.6,0,0-7.44-15.76,5.81-20.31,13.25-4.55,15.87,7.03,15.87,7.03,0,0,1.28,5.34-2.32,5.59-1.8.13-2.88-.81-3.73-1.55-.96-.84-2-4.32-2.18-5.28-.24-1.33-.62-3.87-.36-6.49l-3.67.11c-.41,3.87.42,7.73,1.06,9.98.56,2,1.56,3.86,3.03,5.33,1.58,1.59,3.94,3,7.06,2.33,6.24-1.34,5.67-9.45,5.67-9.45,0,0-.82-11.7-11.75-12.75v.02Z" fill="#fcc"/>
  <path d="M43.58,8.05S35.56-3.15,23.33,3.13c-2.55,1.31-4.19,3.18-5.19,5.28h3.78c1.22-2.04,3.34-3.6,6.94-3.85,10.8-.76,13.31,10.83,13.31,10.83l4.62-.32c-1.22-4.44-3.21-7.01-3.21-7.01h0Z" fill="none" stroke="#000" stroke-linecap="round" stroke-linejoin="round" stroke-width="1.5"/>
  <path d="M21.91,8.66c-4.29-.41-7.93.53-10.77,1.82-5.16,2.35-8.69,7.28-9.48,12.9-.31,2.19-.37,4.74.1,7.5,1.53,8.94,10.91,13.71,10.91,13.71l2.51-2.89c-5.59-2.32-7.77-7.6-7.77-7.6,0,0-7.44-15.76,5.81-20.31,13.25-4.55,15.87,7.03,15.87,7.03,0,0,1.28,5.34-2.32,5.59-1.8.13-2.88-.81-3.73-1.55-.96-.84-2-4.32-2.18-5.28-.24-1.33-.62-3.87-.36-6.49l-3.67.11c-.41,3.87.42,7.73,1.06,9.98.56,2,1.56,3.86,3.03,5.33,1.58,1.59,3.94,3,7.06,2.33,6.24-1.34,5.67-9.45,5.67-9.45,0,0-.82-11.7-11.75-12.75v.02Z" fill="none" stroke="#000" stroke-linecap="round" stroke-linejoin="round" stroke-width="1.5"/>
</svg>
